!!!COM: Bach, Johann Sebastian
!!!CDT: 1685/02/21/-1750/07/28/
!!!OTL@@DE: Mit Fried' und Freud' fahr' ich dahin
!!!SCT: BWV 382
!!!PC#: 49
!!!AGN: chorale
**kern	**kern	**kern	**kern	**qual
*ICvox	*ICvox	*ICvox	*ICvox	*ICvox
*Ibass	*Itenor	*Ialto	*Isoprn	*
*I"Bass	*I"Tenor	*I"Alto	*I"Soprano	*
*clefF4	*clefGv2	*clefG2	*clefG2	*
*k[]	*k[]	*k[]	*k[]	*k[]
*d:dor	*d:dor	*d:dor	*d:dor	*d:dor
*M4/4	*M4/4	*M4/4	*M4/4	*M4/4
*met(c)	*met(c)	*met(c)	*met(c)	*met(c)
*MM100	*MM100	*MM100	*MM100	*MM100
8DL	8FL	4A	4d	min:0:D
8EJ	8GJ	.	.	X[dega]
=1	=1	=1	=1	=1
8FL	4A	4d	4a	min:1:D
8EJ	.	.	.	X[dea]
8FL	8dL	4f	4a	min:1:D
8DJ	8cJ	.	.	minmin7:0:D
8EL	4B	4e	4g	min:0:E
8DJ	.	.	.	minmin7:3:E
8CL@	8AL@	8f#L@	4dd@	dom7:3:D
8BBJ	8BJ	8g#J	.	dim:1:G#
=2	=2	=2	=2	=2
8AAL	8cL	4.a	4cc	incmin:0:A
8CJ	16dL	.	.	X[cda]
.	16eJJ	.	.	min:1:A
8DL	8fnXL	.	4b	halfdim7:1:B
8EJ	8eJ	8g#	.	maj:0:E
4AA;	4c;	4e;	4a;	min:0:A
4A	4e	[4a	4cc	min:0:A
=3	=3	=3	=3	=3
8DL	8fL	8aL]	4b	halfdim7:1:B
8EJ	16eL	8g#J	.	maj:0:E
.	16dJJ	.	.	dom7:0:E
8FL	16cLL	4a	4a	maj:0:F
.	16BJ	.	.	X[fab]
8EJ	[8AJ	.	.	incmajx3:1:A
8DL	8AL]	4f	2b	halfdim7:1:B
8BBJ	16dL	.	.	dim:0:B
.	16BJJ	.	.	X[fb]
4E	4G#	8eL	.	maj:0:E
.	.	8dJ	.	dom7:0:E
=4	=4	=4	=4	=4
2.AA;	2.A;	2.c;	2.a;	incmin:0:A
8GnXL	4d	4gnX	4b	maj:0:G
8FJ	.	.	.	dom7:3:G
=5	=5	=5	=5	=5
8EL	4e	4g	4cc	maj:1:C
8FJ	.	.	.	X[cefg]
8GL	4d	4g	4b	maj:0:G
8FJ	.	.	.	dom7:3:G
8EL	4.c	4g	4cc	maj:1:C
8CJ	.	.	.	incmajx3:0:C
8FL	.	4f	4a	maj:0:F
8DJ	8d	.	.	min:0:D
=6	=6	=6	=6	=6
8B-L	8c#L	8eL	8gL	fulldim7:3:C#
8GJ	8dJ	8dJ	8fJ	X[dfg]
4A	8AL	4c#	4e	maj:0:A
.	8GJ	.	.	dom7:3:A
4D;	4F;	4A;	4d;	min:0:D
8C#XL	4A	8eL	[4a	maj:1:A
8BBJ	.	8dJ	.	minmin7x5:0:B
=7	=7	=7	=7	=7
8C#L	8GL	8eL	4a]	dom7:1:A
8AA	[8FJ	8c#J	.	aug:1:F
8BB	8FL]	8dL	4g	dom7:1:G
8C#J	8EJ	8eJ	.	dim:0:C#
8DL	2F	4A	8fL	min:0:D
8C	.	.	8eJ	majmaj7:2:F
8D	.	4B-	4d	maj:1:B-
8EJ	.	.	.	X[defb-]
=8	=8	=8	=8	=8
2F;	2F;	2A;	2c;	maj:0:F
4C#	4A	4e	4a	maj:1:A
4D	4A	4d	4f	min:0:D
=9	=9	=9	=9	=9
4E	4G	8c	4cc	maj:1:C
.	.	4g	.	maj:1:C
4F	8cL	.	4a	X[cfga]
.	8dJ	8f	.	min:1:D
8GL	8eL	8eL	8gL	incmin:1:E
8AJ	8fJ	8dJ	8fJ	min:2:D
4B-	8eL	8c#L	4g	fulldim7:3:C#
.	8dJ	8dJ	.	min:1:G
=10	=10	=10	=10	=10
4A;	4c#;	4e;	4a;	maj:0:A
4C#X	4A	4e	4g	dom7:1:A
4D	8AL	8dL	8fL	min:0:D
.	8GJ	8cnXJ	8eJ	X[cdeg]
4GG#	4F	4BnX	4d	fulldim7:0:G#
=11	=11	=11	=11	=11
4.AA	4E	8AL	4c	min:0:A
.	.	8BJ	.	X[ceab]
.	2.A	8c#L	4f	aug:1:F
8BB	.	8dJ	.	halfdim7:0:B
8C#L	.	8eL	8e	maj:1:A
8DJ	.	8fJ	4d	min:0:D
4AA	.	[4g	.	X[dga]
.	.	.	8c#	dom7x5:0:A
=12	=12	=12	=12	=12
1DD;	4B-	4g]	1d;	min:2:G
.	8AL	8f#L	.	maj:0:D
.	8GJ	8eJ	.	minmin7x5:2:E
.	2A;	2f#;	.	maj:0:D
==	==	==	==	==
*-	*-	*-	*-	*-
!!!hum2abc: -Q ''
!!!title: @{PC#}. @{OTL@@DE}
!!!YOR1: 371 vierstimmige Choralges&auml;nge von Johann Sebastian Bach,
!!!YOR2: 4th ed. by Alfred D&ouml;rffel (Leipzig: Breitkopf und H&auml;rtel,
!!!YOR2: c.1875). 178 pp. Plate "V.A.10".  reprint: J.S. Bach, 371 Four-Part
!!!YOR4: Chorales (New York: Associated Music Publishers, Inc., c.1940).
!!!SMS: B&H, 4th ed, Alfred D&ouml;rffel, c.1875, plate V.A.10
!!!EED:  Craig Stuart Sapp
!!!EEV:  2009/05/22
!!!RDF**kern: @ = matched note, color="#ff0000"
